poi/svg/2317.svg

<?xml version="1.0" encoding="UTF-8" standalone="no"?>
<svg
   xmlns:dc="http://purl.org/dc/elements/1.1/"
   xmlns:cc="http://creativecommons.org/ns#"
   xmlns:rdf="http://www.w3.org/1999/02/22-rdf-syntax-ns#"
   xmlns:svg="http://www.w3.org/2000/svg"
   xmlns="http://www.w3.org/2000/svg"
   xmlns:sodipodi="http://sodipodi.sourceforge.net/DTD/sodipodi-0.dtd"
   xmlns:inkscape="http://www.inkscape.org/namespaces/inkscape"
   inkscape:version="1.0 (4035a4fb49, 2020-05-01)"
   sodipodi:docname="2317.svg"
   id="svg20"
   version="1.2"
   viewBox="0 0 42.519639 42.519639"
   height="14.999999mm"
   width="14.999999mm">
  <metadata
     id="metadata24">
    <rdf:RDF>
      <cc:Work
         rdf:about="">
        <dc:format>image/svg+xml</dc:format>
        <dc:type
           rdf:resource="http://purl.org/dc/dcmitype/StillImage" />
        <dc:title>Qt SVG Document</dc:title>
      </cc:Work>
    </rdf:RDF>
  </metadata>
  <sodipodi:namedview
     inkscape:current-layer="svg20"
     inkscape:window-maximized="0"
     inkscape:window-y="0"
     inkscape:window-x="0"
     inkscape:cy="28.346482"
     inkscape:cx="28.346482"
     inkscape:zoom="5.8410537"
     showgrid="false"
     id="namedview22"
     inkscape:window-height="480"
     inkscape:window-width="1034"
     inkscape:pageshadow="2"
     inkscape:pageopacity="0"
     guidetolerance="10"
     gridtolerance="10"
     objecttolerance="10"
     borderopacity="1"
     bordercolor="#666666"
     pagecolor="#ffffff" />
  <title
     id="title2">Qt SVG Document</title>
  <desc
     id="desc4">Generated with Qt</desc>
  <defs
     id="defs6" />
  <g
     transform="translate(5.25984,5.25984)"
     id="g18"
     stroke-linejoin="bevel"
     stroke-linecap="square"
     fill-rule="evenodd"
     stroke-width="1"
     stroke="#000000"
     fill="none">
    <g
       id="g10"
       font-style="normal"
       font-weight="400"
       font-size="7.8px"
       font-family="'MS Shell Dlg 2'"
       stroke="none"
       fill-opacity="1"
       fill="#ef4b65">
      <path
         id="path8"
         d="M 37.2598,16 C 37.2598,27.7415 27.7415,37.2598 16,37.2598 4.25851,37.2598 -5.25984,27.7415 -5.25984,16 -5.25984,4.25851 4.25851,-5.25984 16,-5.25984 27.7415,-5.25984 37.2598,4.25851 37.2598,16"
         fill-rule="evenodd"
         vector-effect="non-scaling-stroke" />
    </g>
    <g
       id="g14"
       font-style="normal"
       font-weight="400"
       font-size="7.8px"
       font-family="'MS Shell Dlg 2'"
       transform="translate(16.5102,11.011)"
       stroke="none"
       fill-opacity="0.94902"
       fill="#ffffff">
      <path
         id="path12"
         d="m 16.3594,11.5547 c 0.039,-0.3646 0.0618,-0.7292 0.0683,-1.0938 0.0065,-0.3645 0.0163,-0.72587 0.0293,-1.08395 0.0131,-0.35807 0.0391,-0.71614 0.0782,-1.07422 0.039,-0.35807 0.1041,-0.72591 0.1953,-1.10351 0.1041,-0.45573 0.1562,-0.90495 0.1562,-1.34766 0,-0.44271 -0.0423,-0.85937 -0.1269,-1.25 C 16.6751,4.21094 16.5612,3.85612 16.418,3.53711 16.2747,3.2181 16.1185,2.94792 15.9492,2.72656 15.5846,2.3099 15.1126,1.88672 14.5332,1.45703 13.9538,1.02734 13.3158,0.617188 12.6191,0.226563 11.9225,-0.164063 11.1966,-0.525391 10.4414,-0.857422 9.6862,-1.18945 8.94401,-1.47266 8.21484,-1.70703 7.05599,-2.07161 5.89714,-2.33529 4.73828,-2.49805 3.57943,-2.66081 2.42057,-2.74219 1.26172,-2.74219 c -1.158855,0 -2.32096,0.07162 -3.48633,0.21485 -1.16536,0.14323 -2.32747,0.33203 -3.48633,0.5664 -1.57552,0.37761 -3.0957,0.83008 -4.56056,1.357424 -1.4648,0.5273441 -2.8939,1.142579 -4.2871,1.845706 -0.9766,0.49479 -1.7904,1.13932 -2.4414,1.93359 -0.651,0.79427 -1.0612,1.71875 -1.2305,2.77344 -0.0521,0.27344 -0.0846,0.46875 -0.0976,0.58594 -0.013,0.11718 -0.0163,0.22461 -0.0098,0.32226 0.0065,0.09766 0.0163,0.21159 0.0293,0.3418 0.013,0.13021 0.0195,0.33854 0.0195,0.625 -0.2994,-0.41667 -0.5241,-0.92774 -0.6738,-1.5332 -0.1497,-0.60547 -0.2246,-1.22396 -0.2246,-1.85547 0,-0.63151 0.0846,-1.24675 0.2539,-1.84571 0.1693,-0.59895 0.4232,-1.10026 0.7617,-1.5039 0.3906,-0.42969 0.8073,-0.826825 1.25,-1.191409 0.4427,-0.364583 0.892,-0.677083 1.3477,-0.937501 2.4349,-1.36719 4.9349,-2.43489 7.49998,-3.20312 2.56511,-0.76823 5.2474,-1.17839 8.0468762,-1.23047 1.4583338,0 2.9101538,0.0651 4.3554738,0.19531 1.44531,0.13021 2.88411,0.41016 4.3164,0.83984 0.66406,0.23438 1.32813,0.50131 1.99217,0.80078 0.6641,0.29948 1.3281,0.61849 1.9922,0.95704 0.3385,0.18229 0.6543,0.36132 0.9473,0.53711 0.2929,0.17578 0.5794,0.35807 0.8593,0.54687 0.28,0.1888 0.5632,0.38412 0.8497,0.58594 0.2864,0.201821 0.5924,0.41992 0.9179,0.654295 0.9766,0.651042 1.6927,1.432295 2.1485,2.343755 0.4557,0.91145 0.677,1.92057 0.664,3.02734 -0.2343,1.96614 -0.8919,3.83463 -1.9726,5.60548 -0.0651,0.1823 -0.1628,0.3483 -0.293,0.498 -0.1302,0.1498 -0.2604,0.2963 -0.3906,0.4395 m -4.2774,3.418 c 0.3386,-0.4948 0.5957,-0.9961 0.7715,-1.5039 0.1758,-0.5079 0.2897,-1.0222 0.3418,-1.543 0.0521,-0.5209 0.0456,-1.0515 -0.0195,-1.5918 C 13.1107,9.79362 13.013,9.25 12.8828,8.70313 12.6224,7.59635 12.1927,6.70117 11.5938,6.01758 10.9948,5.33398 10.1615,4.75781 9.09375,4.28906 8.29948,3.96354 7.50846,3.67057 6.7207,3.41016 5.93294,3.14974 5.14193,2.93815 4.34766,2.77539 3.55339,2.61263 2.74284,2.50846 1.91602,2.46289 1.08919,2.41732 0.239583,2.4401 -0.632813,2.53125 -1.84375,2.70052 -3.04167,2.83724 -4.22656,2.94141 c -1.1849,0.10416 -2.36328,0.27994 -3.53516,0.52734 -0.85937,0.23438 -1.67643,0.53385 -2.45118,0.89844 -0.7747,0.36458 -1.5527,0.73567 -2.334,1.11328 -0.5338,0.29948 -1.0221,0.68685 -1.4648,1.16211 -0.4427,0.47526 -0.791,1.01562 -1.0449,1.62109 -0.2539,0.60547 -0.3874,1.25326 -0.4004,1.94333 -0.0131,0.6901 0.1432,1.3868 0.4687,2.0899 0.0261,0.1692 0.0651,0.332 0.1172,0.4883 0.0521,0.1562 0.1172,0.3059 0.1953,0.4492 -0.3125,-0.2604 -0.612,-0.6543 -0.8984,-1.1817 -0.2865,-0.5273 -0.5143,-1.097 -0.6836,-1.7089 -0.1693,-0.61203 -0.2669,-1.21099 -0.293,-1.79692 -0.026,-0.58594 0.0586,-1.06771 0.2539,-1.44532 0.2344,-0.52083 0.5209,-1.01237 0.8594,-1.47461 0.3385,-0.46224 0.7194,-0.88867 1.1426,-1.27929 0.4232,-0.39063 0.8691,-0.74219 1.3379,-1.05469 0.4687,-0.3125 0.9505,-0.58594 1.4453,-0.82031 1.3411,-0.625 2.74738,-1.10677 4.21873,-1.44532 1.47136,-0.338538 2.9362,-0.559892 4.39453,-0.664059 C -1.25781,0.259115 0.392578,0.220052 2.05273,0.246094 3.71289,0.272135 5.40234,0.473958 7.12109,0.851563 8.04557,1.04688 8.95378,1.37565 9.8457,1.83789 c 0.8919,0.46224 1.7285,1.00586 2.5098,1.63086 0.5468,0.40365 1.0416,0.86914 1.4843,1.39648 0.4428,0.52735 0.6967,1.10352 0.7618,1.72852 0.026,0.26042 0.0586,0.5013 0.0976,0.72266 0.0391,0.22135 0.0912,0.46224 0.1563,0.72265 0.0781,0.33854 0.1041,0.69336 0.0781,1.06446 -0.026,0.37109 -0.0814,0.73567 -0.166,1.09378 -0.0847,0.358 -0.1888,0.7031 -0.3125,1.0351 -0.1237,0.3321 -0.2507,0.6218 -0.3809,0.8692 -0.1432,0.3125 -0.3711,0.7161 -0.6836,1.2109 -0.3125,0.4948 -0.7487,1.0482 -1.3086,1.6602 m -24.375,0.332 c -0.1302,-0.1432 -0.2441,-0.2572 -0.3418,-0.3418 -0.0976,-0.0846 -0.1725,-0.2181 -0.2246,-0.4004 -0.026,-0.2083 -0.0683,-0.4525 -0.1269,-0.7324 -0.0586,-0.28 -0.1172,-0.5664 -0.1758,-0.8594 -0.0586,-0.293 -0.1074,-0.5794 -0.1465,-0.8594 -0.0391,-0.2799 -0.0456,-0.5306 -0.0195,-0.7519 0,-0.5469 0.1497,-1.0352 0.4492,-1.46487 0.4036,-0.59896 0.8659,-1.14909 1.3867,-1.65039 0.5208,-0.5013 1.0775,-0.93424 1.66993,-1.29883 0.59245,-0.36458 1.22396,-0.64778 1.89454,-0.84961 0.67057,-0.20182 1.35742,-0.30273 2.06054,-0.30273 0.74219,0 1.49414,-0.01302 2.25586,-0.03906 0.76172,-0.02605 1.52018,-0.09766 2.27539,-0.21485 1.093752,-0.13021 2.194013,-0.1595 3.30078,-0.08789 1.10677,0.07162 2.19401,0.21159 3.26172,0.41992 1.69271,0.35157 3.09245,1.06771 4.19922,2.14844 1.10682,1.08073 1.84892,2.46097 2.22652,4.14067 0.0131,0.0781 0,0.2018 -0.039,0.3711 -0.0391,0.1692 -0.0879,0.3515 -0.1465,0.5468 -0.0586,0.1953 -0.1172,0.3841 -0.1758,0.5664 -0.0586,0.1823 -0.1074,0.3256 -0.1465,0.4297 -0.026,0 -0.0553,-0.0065 -0.0879,-0.0195 -0.0325,-0.013 -0.0618,-0.0195 -0.0878,-0.0195 C 10.7865,13.6576 10.6302,13.319 10.5,13.0195 10.3698,12.7201 10.2201,12.401 10.0508,12.0625 9.76432,11.3464 9.41276,10.7539 8.99609,10.2852 8.57943,9.81641 8.10091,9.42578 7.56055,9.11328 7.02018,8.80078 6.42773,8.55664 5.7832,8.38086 5.13867,8.20508 4.4388,8.05208 3.68359,7.92188 2.72005,7.92188 1.77279,7.89909 0.841797,7.85352 -0.0891927,7.80794 -1.02344,7.79818 -1.96094,7.82422 -2.71615,7.8763 -3.4681,7.9349 -4.2168,8 -4.96549,8.0651 -5.73698,8.13021 -6.53125,8.19531 -7.42969,8.26042 -8.2207,8.44271 -8.9043,8.74219 c -0.68359,0.29948 -1.2923,0.74219 -1.8262,1.32811 -0.5078,0.612 -0.8886,1.2695 -1.1425,1.9727 -0.254,0.7031 -0.3418,1.5104 -0.2637,2.4218 0,0.1172 0.0097,0.2377 0.0293,0.3614 0.0195,0.1237 0.0293,0.2441 0.0293,0.3613 -0.0261,0.0391 -0.0554,0.0618 -0.0879,0.0684 -0.0326,0.0065 -0.0749,0.0227 -0.127,0.0488 M 9.28906,16.125 C 8.8724,16.3073 8.50781,16.3659 8.19531,16.3008 7.88281,16.2357 7.64844,16.0729 7.49219,15.8125 6.75,14.8229 5.91667,14.084 4.99219,13.5957 4.06771,13.1074 2.98047,12.8242 1.73047,12.7461 0.688802,12.694 -0.339844,12.6615 -1.35547,12.6484 c -1.01562,-0.013 -2.03776,-0.0195 -3.06641,-0.0195 -0.57291,0 -1.07096,0.1139 -1.49414,0.3418 -0.42317,0.2279 -0.85612,0.5762 -1.29882,1.0449 -0.32552,0.3516 -0.66081,0.6608 -1.00586,0.9278 -0.34506,0.2669 -0.66732,0.5631 -0.9668,0.8886 -0.09115,0.1042 -0.15951,0.1823 -0.20508,0.2344 -0.04557,0.0521 -0.0944,0.0846 -0.14648,0.0977 -0.05209,0.013 -0.1237,0.013 -0.21485,0 -0.09114,-0.0131 -0.22135,-0.0391 -0.39059,-0.0782 0.1041,-0.5729 0.30596,-1.1686 0.60544,-1.7871 0.29948,-0.6185 0.67708,-1.1914 1.13281,-1.7187 0.45573,-0.5274 0.97656,-0.9701 1.5625,-1.3281 0.58594,-0.3581 1.21745,-0.5697 1.89453,-0.6348 0.63802,-0.0391 1.30859,-0.0651 2.01172,-0.0781 0.70312,-0.0131 1.41276,-0.0098 2.128906,0.0097 0.7161461,0.0196 1.425782,0.0489 2.128904,0.0879 0.70313,0.0391 1.36719,0.0781 1.99219,0.1172 0.48177,0.026 0.92773,0.1204 1.33789,0.2832 0.41016,0.1628 0.80078,0.3711 1.17188,0.625 0.37109,0.2539 0.72591,0.5404 1.06445,0.8594 0.33854,0.319 0.67057,0.6478 0.99609,0.9863 0.14323,0.1432 0.27018,0.3255 0.38086,0.5469 0.11068,0.2213 0.22136,0.4557 0.33203,0.7031 0.11068,0.2474 0.22136,0.4915 0.33203,0.7324 0.11068,0.2409 0.23112,0.4525 0.36133,0.6348 m -15.05859,1.1328 c 0.05208,-0.2213 0.11719,-0.4525 0.19531,-0.6933 0.07813,-0.2409 0.16602,-0.4688 0.26367,-0.6836 0.09766,-0.2149 0.20834,-0.4004 0.33203,-0.5567 0.1237,-0.1562 0.26368,-0.2539 0.41993,-0.2929 0.41666,-0.0782 0.84961,-0.14 1.29882,-0.1856 0.44922,-0.0456 0.88868,-0.0423 1.31836,0.0098 0.46875,0.026 1.025394,0.1074 1.669926,0.2441 0.644531,0.1367 1.376954,0.2376 2.197264,0.3027 0.23438,0.0261 0.43945,0.1205 0.61524,0.2832 0.17578,0.1628 0.33854,0.3549 0.48828,0.5762 0.14974,0.2214 0.28646,0.459 0.41015,0.7129 0.1237,0.2539 0.25065,0.485 0.38086,0.6934 C 3.59896,17.6549 3.38737,17.6452 3.18555,17.6387 2.98372,17.6322 2.78516,17.6191 2.58984,17.5996 2.39453,17.5801 2.19922,17.5443 2.00391,17.4922 1.80859,17.4401 1.60677,17.3555 1.39844,17.2383 0.552083,16.7826 -0.313802,16.5514 -1.19922,16.5449 -2.08464,16.5384 -2.97656,16.6654 -3.875,16.9258 l -1.89453,0.332"
         fill-rule="evenodd"
         vector-effect="none" />
    </g>
    <g
       id="g16"
       font-style="normal"
       font-weight="400"
       font-size="7.8px"
       font-family="'MS Shell Dlg 2'"
       stroke="none"
       fill-opacity="1"
       fill="#ef4b65" />
  </g>
</svg>

<?xml version="1.0" encoding="UTF-8" standalone="no"?>
<svg width="11.2889mm" height="11.2889mm"
 viewBox="0 0 32 32"
 xmlns="http://www.w3.org/2000/svg" xmlns:xlink="http://www.w3.org/1999/xlink"  version="1.2" baseProfile="tiny">
<title>Qt SVG Document</title>
<desc>Generated with Qt</desc>
<defs>
</defs>
<g fill="none" stroke="black" stroke-width="1" fill-rule="evenodd" stroke-linecap="square" stroke-linejoin="bevel" >

<g fill="#ef4b65" fill-opacity="1" stroke="none" transform="matrix(1,0,0,1,0,0)"
font-family="MS Shell Dlg 2" font-size="7.8" font-weight="400" font-style="normal" 
>
<path vector-effect="non-scaling-stroke" fill-rule="evenodd" d="M37.2598,16 C37.2598,27.7415 27.7415,37.2598 16,37.2598 C4.25851,37.2598 -5.25984,27.7415 -5.25984,16 C-5.25984,4.25851 4.25851,-5.25984 16,-5.25984 C27.7415,-5.25984 37.2598,4.25851 37.2598,16 "/>
</g>

<g fill="#ffffff" fill-opacity="0.94902" stroke="none" transform="matrix(1,0,0,1,16.5102,11.011)"
font-family="MS Shell Dlg 2" font-size="7.8" font-weight="400" font-style="normal" 
>
<path vector-effect="none" fill-rule="evenodd" d="M16.3594,11.5547 C16.3984,11.1901 16.4212,10.8255 16.4277,10.4609 C16.4342,10.0964 16.444,9.73503 16.457,9.37695 C16.4701,9.01888 16.4961,8.66081 16.5352,8.30273 C16.5742,7.94466 16.6393,7.57682 16.7305,7.19922 C16.8346,6.74349 16.8867,6.29427 16.8867,5.85156 C16.8867,5.40885 16.8444,4.99219 16.7598,4.60156 C16.6751,4.21094 16.5612,3.85612 16.418,3.53711 C16.2747,3.2181 16.1185,2.94792 15.9492,2.72656 C15.5846,2.3099 15.1126,1.88672 14.5332,1.45703 C13.9538,1.02734 13.3158,0.617188 12.6191,0.226563 C11.9225,-0.164063 11.1966,-0.525391 10.4414,-0.857422 C9.6862,-1.18945 8.94401,-1.47266 8.21484,-1.70703 C7.05599,-2.07161 5.89714,-2.33529 4.73828,-2.49805 C3.57943,-2.66081 2.42057,-2.74219 1.26172,-2.74219 C0.102865,-2.74219 -1.05924,-2.67057 -2.22461,-2.52734 C-3.38997,-2.38411 -4.55208,-2.19531 -5.71094,-1.96094 C-7.28646,-1.58333 -8.80664,-1.13086 -10.2715,-0.603516 C-11.7363,-0.0761719 -13.1654,0.539063 -14.5586,1.24219 C-15.5352,1.73698 -16.349,2.38151 -17,3.17578 C-17.651,3.97005 -18.0612,4.89453 -18.2305,5.94922 C-18.2826,6.22266 -18.3151,6.41797 -18.3281,6.53516 C-18.3411,6.65234 -18.3444,6.75977 -18.3379,6.85742 C-18.3314,6.95508 -18.3216,7.06901 -18.3086,7.19922 C-18.2956,7.32943 -18.2891,7.53776 -18.2891,7.82422 C-18.5885,7.40755 -18.8132,6.89648 -18.9629,6.29102 C-19.1126,5.68555 -19.1875,5.06706 -19.1875,4.43555 C-19.1875,3.80404 -19.1029,3.1888 -18.9336,2.58984 C-18.7643,1.99089 -18.5104,1.48958 -18.1719,1.08594 C-17.7813,0.65625 -17.3646,0.259115 -16.9219,-0.105469 C-16.4792,-0.470052 -16.0299,-0.782552 -15.5742,-1.04297 C-13.1393,-2.41016 -10.6393,-3.47786 -8.07422,-4.24609 C-5.50911,-5.01432 -2.82682,-5.42448 -0.0273438,-5.47656 C1.43099,-5.47656 2.88281,-5.41146 4.32813,-5.28125 C5.77344,-5.15104 7.21224,-4.87109 8.64453,-4.44141 C9.30859,-4.20703 9.97266,-3.9401 10.6367,-3.64063 C11.3008,-3.34115 11.9648,-3.02214 12.6289,-2.68359 C12.9674,-2.5013 13.2832,-2.32227 13.5762,-2.14648 C13.8691,-1.9707 14.1556,-1.78841 14.4355,-1.59961 C14.7155,-1.41081 14.9987,-1.21549 15.2852,-1.01367 C15.5716,-0.811849 15.8776,-0.59375 16.2031,-0.359375 C17.1797,0.291667 17.8958,1.07292 18.3516,1.98438 C18.8073,2.89583 19.0286,3.90495 19.0156,5.01172 C18.7813,6.97786 18.1237,8.84635 17.043,10.6172 C16.9779,10.7995 16.8802,10.9655 16.75,11.1152 C16.6198,11.265 16.4896,11.4115 16.3594,11.5547 M12.082,14.9727 C12.4206,14.4779 12.6777,13.9766 12.8535,13.4688 C13.0293,12.9609 13.1432,12.4466 13.1953,11.9258 C13.2474,11.4049 13.2409,10.8743 13.1758,10.334 C13.1107,9.79362 13.013,9.25 12.8828,8.70313 C12.6224,7.59635 12.1927,6.70117 11.5938,6.01758 C10.9948,5.33398 10.1615,4.75781 9.09375,4.28906 C8.29948,3.96354 7.50846,3.67057 6.7207,3.41016 C5.93294,3.14974 5.14193,2.93815 4.34766,2.77539 C3.55339,2.61263 2.74284,2.50846 1.91602,2.46289 C1.08919,2.41732 0.239583,2.4401 -0.632813,2.53125 C-1.84375,2.70052 -3.04167,2.83724 -4.22656,2.94141 C-5.41146,3.04557 -6.58984,3.22135 -7.76172,3.46875 C-8.62109,3.70313 -9.43815,4.0026 -10.2129,4.36719 C-10.9876,4.73177 -11.7656,5.10286 -12.5469,5.48047 C-13.0807,5.77995 -13.569,6.16732 -14.0117,6.64258 C-14.4544,7.11784 -14.8027,7.6582 -15.0566,8.26367 C-15.3105,8.86914 -15.444,9.51693 -15.457,10.207 C-15.4701,10.8971 -15.3138,11.5938 -14.9883,12.2969 C-14.9622,12.4661 -14.9232,12.6289 -14.8711,12.7852 C-14.819,12.9414 -14.7539,13.0911 -14.6758,13.2344 C-14.9883,12.974 -15.2878,12.5801 -15.5742,12.0527 C-15.8607,11.5254 -16.0885,10.9557 -16.2578,10.3438 C-16.4271,9.73177 -16.5247,9.13281 -16.5508,8.54688 C-16.5768,7.96094 -16.4922,7.47917 -16.2969,7.10156 C-16.0625,6.58073 -15.776,6.08919 -15.4375,5.62695 C-15.099,5.16471 -14.7181,4.73828 -14.2949,4.34766 C-13.8717,3.95703 -13.4258,3.60547 -12.957,3.29297 C-12.4883,2.98047 -12.0065,2.70703 -11.5117,2.47266 C-10.1706,1.84766 -8.76432,1.36589 -7.29297,1.02734 C-5.82161,0.688802 -4.35677,0.467448 -2.89844,0.363281 C-1.25781,0.259115 0.392578,0.220052 2.05273,0.246094 C3.71289,0.272135 5.40234,0.473958 7.12109,0.851563 C8.04557,1.04688 8.95378,1.37565 9.8457,1.83789 C10.7376,2.30013 11.5742,2.84375 12.3555,3.46875 C12.9023,3.8724 13.3971,4.33789 13.8398,4.86523 C14.2826,5.39258 14.5365,5.96875 14.6016,6.59375 C14.6276,6.85417 14.6602,7.09505 14.6992,7.31641 C14.7383,7.53776 14.7904,7.77865 14.8555,8.03906 C14.9336,8.3776 14.9596,8.73242 14.9336,9.10352 C14.9076,9.47461 14.8522,9.83919 14.7676,10.1973 C14.6829,10.5553 14.5788,10.9004 14.4551,11.2324 C14.3314,11.5645 14.2044,11.8542 14.0742,12.1016 C13.931,12.4141 13.7031,12.8177 13.3906,13.3125 C13.0781,13.8073 12.6419,14.3607 12.082,14.9727 M-12.293,15.3047 C-12.4232,15.1615 -12.5371,15.0475 -12.6348,14.9629 C-12.7324,14.8783 -12.8073,14.7448 -12.8594,14.5625 C-12.8854,14.3542 -12.9277,14.11 -12.9863,13.8301 C-13.0449,13.5501 -13.1035,13.2637 -13.1621,12.9707 C-13.2207,12.6777 -13.2695,12.3913 -13.3086,12.1113 C-13.3477,11.8314 -13.3542,11.5807 -13.3281,11.3594 C-13.3281,10.8125 -13.1784,10.3242 -12.8789,9.89453 C-12.4753,9.29557 -12.013,8.74544 -11.4922,8.24414 C-10.9714,7.74284 -10.4147,7.3099 -9.82227,6.94531 C-9.22982,6.58073 -8.59831,6.29753 -7.92773,6.0957 C-7.25716,5.89388 -6.57031,5.79297 -5.86719,5.79297 C-5.125,5.79297 -4.37305,5.77995 -3.61133,5.75391 C-2.84961,5.72786 -2.09115,5.65625 -1.33594,5.53906 C-0.242188,5.40885 0.858073,5.37956 1.96484,5.45117 C3.07161,5.52279 4.15885,5.66276 5.22656,5.87109 C6.91927,6.22266 8.31901,6.9388 9.42578,8.01953 C10.5326,9.10026 11.2747,10.4805 11.6523,12.1602 C11.6654,12.2383 11.6523,12.362 11.6133,12.5313 C11.5742,12.7005 11.5254,12.8828 11.4668,13.0781 C11.4082,13.2734 11.3496,13.4622 11.291,13.6445 C11.2324,13.8268 11.1836,13.9701 11.1445,14.0742 C11.1185,14.0742 11.0892,14.0677 11.0566,14.0547 C11.0241,14.0417 10.9948,14.0352 10.9688,14.0352 C10.7865,13.6576 10.6302,13.319 10.5,13.0195 C10.3698,12.7201 10.2201,12.401 10.0508,12.0625 C9.76432,11.3464 9.41276,10.7539 8.99609,10.2852 C8.57943,9.81641 8.10091,9.42578 7.56055,9.11328 C7.02018,8.80078 6.42773,8.55664 5.7832,8.38086 C5.13867,8.20508 4.4388,8.05208 3.68359,7.92188 C2.72005,7.92188 1.77279,7.89909 0.841797,7.85352 C-0.0891927,7.80794 -1.02344,7.79818 -1.96094,7.82422 C-2.71615,7.8763 -3.4681,7.9349 -4.2168,8 C-4.96549,8.0651 -5.73698,8.13021 -6.53125,8.19531 C-7.42969,8.26042 -8.2207,8.44271 -8.9043,8.74219 C-9.58789,9.04167 -10.1966,9.48438 -10.7305,10.0703 C-11.2383,10.6823 -11.6191,11.3398 -11.873,12.043 C-12.127,12.7461 -12.2148,13.5534 -12.1367,14.4648 C-12.1367,14.582 -12.127,14.7025 -12.1074,14.8262 C-12.0879,14.9499 -12.0781,15.0703 -12.0781,15.1875 C-12.1042,15.2266 -12.1335,15.2493 -12.166,15.2559 C-12.1986,15.2624 -12.2409,15.2786 -12.293,15.3047 M9.28906,16.125 C8.8724,16.3073 8.50781,16.3659 8.19531,16.3008 C7.88281,16.2357 7.64844,16.0729 7.49219,15.8125 C6.75,14.8229 5.91667,14.084 4.99219,13.5957 C4.06771,13.1074 2.98047,12.8242 1.73047,12.7461 C0.688802,12.694 -0.339844,12.6615 -1.35547,12.6484 C-2.37109,12.6354 -3.39323,12.6289 -4.42188,12.6289 C-4.99479,12.6289 -5.49284,12.7428 -5.91602,12.9707 C-6.33919,13.1986 -6.77214,13.5469 -7.21484,14.0156 C-7.54036,14.3672 -7.87565,14.6764 -8.2207,14.9434 C-8.56576,15.2103 -8.88802,15.5065 -9.1875,15.832 C-9.27865,15.9362 -9.34701,16.0143 -9.39258,16.0664 C-9.43815,16.1185 -9.48698,16.151 -9.53906,16.1641 C-9.59115,16.1771 -9.66276,16.1771 -9.75391,16.1641 C-9.84505,16.151 -9.97526,16.125 -10.1445,16.0859 C-10.0404,15.513 -9.83854,14.9173 -9.53906,14.2988 C-9.23958,13.6803 -8.86198,13.1074 -8.40625,12.5801 C-7.95052,12.0527 -7.42969,11.61 -6.84375,11.252 C-6.25781,10.8939 -5.6263,10.6823 -4.94922,10.6172 C-4.3112,10.5781 -3.64063,10.5521 -2.9375,10.5391 C-2.23438,10.526 -1.52474,10.5293 -0.808594,10.5488 C-0.0924479,10.5684 0.617188,10.5977 1.32031,10.6367 C2.02344,10.6758 2.6875,10.7148 3.3125,10.7539 C3.79427,10.7799 4.24023,10.8743 4.65039,11.0371 C5.06055,11.1999 5.45117,11.4082 5.82227,11.6621 C6.19336,11.916 6.54818,12.2025 6.88672,12.5215 C7.22526,12.8405 7.55729,13.1693 7.88281,13.5078 C8.02604,13.651 8.15299,13.8333 8.26367,14.0547 C8.37435,14.276 8.48503,14.5104 8.5957,14.7578 C8.70638,15.0052 8.81706,15.2493 8.92773,15.4902 C9.03841,15.7311 9.15885,15.9427 9.28906,16.125 M-5.76953,17.2578 C-5.71745,17.0365 -5.65234,16.8053 -5.57422,16.5645 C-5.49609,16.3236 -5.4082,16.0957 -5.31055,15.8809 C-5.21289,15.666 -5.10221,15.4805 -4.97852,15.3242 C-4.85482,15.168 -4.71484,15.0703 -4.55859,15.0313 C-4.14193,14.9531 -3.70898,14.8913 -3.25977,14.8457 C-2.81055,14.8001 -2.37109,14.8034 -1.94141,14.8555 C-1.47266,14.8815 -0.916016,14.9629 -0.271484,15.0996 C0.373047,15.2363 1.10547,15.3372 1.92578,15.4023 C2.16016,15.4284 2.36523,15.5228 2.54102,15.6855 C2.7168,15.8483 2.87956,16.0404 3.0293,16.2617 C3.17904,16.4831 3.31576,16.7207 3.43945,16.9746 C3.56315,17.2285 3.6901,17.4596 3.82031,17.668 C3.59896,17.6549 3.38737,17.6452 3.18555,17.6387 C2.98372,17.6322 2.78516,17.6191 2.58984,17.5996 C2.39453,17.5801 2.19922,17.5443 2.00391,17.4922 C1.80859,17.4401 1.60677,17.3555 1.39844,17.2383 C0.552083,16.7826 -0.313802,16.5514 -1.19922,16.5449 C-2.08464,16.5384 -2.97656,16.6654 -3.875,16.9258 L-5.76953,17.2578"/>
</g>

<g fill="#ef4b65" fill-opacity="1" stroke="none" transform="matrix(1,0,0,1,0,0)"
font-family="MS Shell Dlg 2" font-size="7.8" font-weight="400" font-style="normal" 
>
</g>
</g>
</svg>
